X: 687
T: Planxty Sir Ulick Burke
C:O'Carolan
B:O'Neill's 687
Z: 1997 by John Chambers <jc@trillian.mit.edu>
N:"Spirited"
M:C
L:1/8
K:Dm
d^cde f2(ed) | (cd)(cA) G2FE | F2FD FGAB | AGA^C DEFG |
| A2((3FGA) G2G2 | AGAd ~c3c | d^cde fgfe | (ed)(dc) A4 |
| (c((3d/c/B/) ce) (d((3e/d/c/) de) | (fe)dc A2(GF) | c2(B/c/d) cAFA | GFED D4 :|
|: A,DDC DEFD | EDEC EFGE | F2c2 cdcG | A2d2 ~d3e |
| fefg (f/g/a) gf | e^def (e/f/g) fe | d^cde fefg | AG (^F/G/A) G4 |
| cAAd c2~c2 | (d((3e/d/^c/) de) (fe)dc | (AGAF) .c(AdA) | GFED D4 |]


